X: 135
%
U:~=!turn!
T: Delvin House
C:Neil Gow
O:Scotland
B:Keith Norman MacDonald : "The Skye collection of the best reels & strathspeys extant" : 1887
Z:Ralph Palmer
R:Reel
M:C
L:1/8
K:C
e | ~c2 Ge ~c2 GE | D>d-d>c B>GA>B | c>ed>e c>eA>c | G>AG>E Gc-c :|
e/f/ | gece c(e/f/) ge | afdf d(f/g/) af | gece gecA | A>(fe>d) ecce/f/ |
gece c(e/f/) ge | afdf c(f/g/) af | e>gd>e c>dA>c G>AG>E Gc-c |]


